Sources/FrostedUI/Resources/Icons.xcassets/cursorFilled16.imageset/cursor-filled-16.svg

<svg width="16" height="16" viewBox="0 0 16 16" fill="none" xmlns="http://www.w3.org/2000/svg" data-fui-icon="true">
  <path
    d="M1.1228 3.57005C0.583713 2.04964 2.04966 0.58369 3.57007 1.12278L14.1218 4.86497C15.7741 5.45129 15.8373 7.76485 14.2195 8.44016H14.2185L12.0535 9.34251L13.9382 11.2282C14.6866 11.9768 14.6867 13.1897 13.9382 13.9382C13.1898 14.6867 11.9768 14.6866 11.2283 13.9382L9.34253 12.0534L8.44019 14.2185C7.76505 15.8366 5.45135 15.7742 4.86499 14.1218L1.1228 3.57005Z"
    fill="currentColor"
  />
</svg>

<svg xmlns="http://www.w3.org/2000/svg" width="16" height="16" fill="none" data-fui-icon="true" viewBox="0 0 16 16"><path fill="currentColor" d="M1.123 3.57C.583 2.05 2.05.584 3.57 1.123l10.552 3.742c1.652.586 1.715 2.9.098 3.575h-.002l-2.165.903 1.885 1.885a1.916 1.916 0 1 1-2.71 2.71l-1.885-1.885-.903 2.165c-.675 1.619-2.989 1.556-3.575-.096z"/></svg>
